src/assets/tarantool-logo-compact.svg

<svg width="39" height="28" viewBox="0 0 39 28" fill="none" xmlns="http://www.w3.org/2000/svg">
<path fill-rule="evenodd" clip-rule="evenodd" d="M18.4901 1.37057C19.4171 1.97605 21.0542 3.39496 22.8113 5.15447C24.5344 6.87996 25.9304 8.48987 26.5541 9.42703C28.4173 12.1523 28.4311 15.7689 26.5949 18.5081C25.9924 19.4354 24.5726 21.0785 22.8113 22.8424C21.0498 24.6062 19.4089 26.0279 18.4828 26.6313C15.7455 28.4711 12.1306 28.4562 9.40821 26.5861C8.47156 25.9599 6.86701 24.5642 5.14749 22.8424C3.39392 21.0863 1.97911 19.4502 1.37243 18.5209C-0.416197 15.8603 -0.456503 12.3682 1.25126 9.66941C1.77288 8.78641 3.26508 7.03949 5.14749 5.15451C7.02987 3.26956 8.77446 1.77532 9.65639 1.25296C12.3495 -0.45595 15.8339 -0.416803 18.4901 1.37057Z" fill="url(#paint0_radial)"/>
<path fill-rule="evenodd" clip-rule="evenodd" d="M30.4732 3.89614C31.2148 4.38052 32.5245 5.51566 33.9301 6.92326C35.3087 8.30366 36.4255 9.59163 36.9244 10.3413C38.4151 12.5216 38.4261 15.4147 36.9571 17.6061C36.4751 18.348 35.3393 19.6624 33.9301 21.0736C32.521 22.4847 31.2083 23.6219 30.4675 24.1047C28.2776 25.5766 25.3856 25.5647 23.2077 24.0686C22.4584 23.5675 21.1748 22.451 19.7992 21.0735C18.3963 19.6688 17.2645 18.3598 16.7792 17.6164C15.3482 15.488 15.3159 12.6943 16.6822 10.5353C17.0995 9.82889 18.2932 8.43128 19.7992 6.92329C21.3051 5.41533 22.7007 4.21994 23.4062 3.80205C25.5607 2.43492 28.3483 2.46624 30.4732 3.89614Z" fill="url(#paint1_radial)"/>
<path fill-rule="evenodd" clip-rule="evenodd" d="M22.2832 4.63232C22.4576 4.80258 22.6338 4.9768 22.8112 5.15449C24.5344 6.87998 25.9304 8.48989 26.5541 9.42704C28.4174 12.1524 28.4311 15.7689 26.5949 18.5081C25.9924 19.4354 24.5726 21.0785 22.8112 22.8424C22.6338 23.02 22.4576 23.1942 22.2832 23.3644C21.5812 22.784 20.7104 21.986 19.7992 21.0735C18.3963 19.6688 17.2645 18.3598 16.7792 17.6164C15.3482 15.488 15.3159 12.6943 16.6822 10.5353C17.0995 9.8289 18.2932 8.43128 19.7992 6.92329C20.7103 6.01088 21.5811 5.2129 22.2832 4.63232Z" fill="#FF0D2A"/>
<defs>
<radialGradient id="paint0_radial" cx="0" cy="0" r="1" gradientUnits="userSpaceOnUse" gradientTransform="translate(28.1719 14.6768) rotate(180) scale(28.3546 28.3933)">
<stop offset="0.373134" stop-color="#FF0D0D" stop-opacity="0.51"/>
<stop offset="1" stop-color="#FF0D2A"/>
</radialGradient>
<radialGradient id="paint1_radial" cx="0" cy="0" r="1" gradientUnits="userSpaceOnUse" gradientTransform="translate(17.2083 13.9436) scale(20.778 20.8063)">
<stop offset="0.329713" stop-color="#FF0000" stop-opacity="0.38"/>
<stop offset="1" stop-color="#FF001F" stop-opacity="0.88"/>
</radialGradient>
</defs>
</svg>

<svg width="39" height="28" fill="none" xmlns="http://www.w3.org/2000/svg"><path fill-rule="evenodd" clip-rule="evenodd" d="M18.49 1.37c.927.606 2.564 2.025 4.321 3.784 1.723 1.726 3.12 3.336 3.743 4.273a8.124 8.124 0 01.04 9.081c-.602.927-2.021 2.57-3.783 4.334-1.761 1.764-3.402 3.186-4.328 3.79a8.095 8.095 0 01-9.075-.046c-.936-.626-2.541-2.022-4.26-3.744-1.754-1.756-3.169-3.392-3.776-4.321a8.126 8.126 0 01-.12-8.852c.52-.883 2.013-2.63 3.895-4.514 1.883-1.885 3.627-3.38 4.51-3.902a8.096 8.096 0 018.833.118z" fill="url(#paint0_radial)"/><path fill-rule="evenodd" clip-rule="evenodd" d="M30.473 3.896c.742.485 2.052 1.62 3.457 3.027 1.379 1.38 2.495 2.669 2.994 3.418a6.499 6.499 0 01.033 7.265c-.482.742-1.618 2.056-3.027 3.468-1.409 1.41-2.722 2.548-3.462 3.03a6.476 6.476 0 01-7.26-.035c-.75-.502-2.033-1.618-3.409-2.995-1.403-1.405-2.534-2.714-3.02-3.458a6.5 6.5 0 01-.097-7.08c.418-.707 1.611-2.105 3.117-3.613s2.902-2.703 3.607-3.121a6.477 6.477 0 017.067.094z" fill="url(#paint1_radial)"/><path fill-rule="evenodd" clip-rule="evenodd" d="M22.283 4.632c.175.17.35.345.528.522 1.723 1.726 3.12 3.336 3.743 4.273a8.124 8.124 0 01.04 9.081c-.602.927-2.021 2.57-3.783 4.334-.177.178-.353.352-.528.522a36.963 36.963 0 01-2.484-2.29c-1.403-1.405-2.534-2.714-3.02-3.458a6.5 6.5 0 01-.097-7.08c.418-.707 1.611-2.105 3.117-3.613a36.989 36.989 0 012.484-2.29z" fill="#FF0D2A"/><defs><radialGradient id="paint0_radial" cx="0" cy="0" r="1" gradientUnits="userSpaceOnUse" gradientTransform="matrix(-28.3546 0 0 -28.3933 28.172 14.677)"><stop offset=".373" stop-color="#FF0D0D" stop-opacity=".51"/><stop offset="1" stop-color="#FF0D2A"/></radialGradient><radialGradient id="paint1_radial" cx="0" cy="0" r="1" gradientUnits="userSpaceOnUse" gradientTransform="matrix(20.778 0 0 20.8063 17.208 13.944)"><stop offset=".33" stop-color="red" stop-opacity=".38"/><stop offset="1" stop-color="#FF001F" stop-opacity=".88"/></radialGradient></defs></svg>
